svg/m/MD.svg

<svg width="20" height="15" viewBox="0 0 20 15" fill="none" xmlns="http://www.w3.org/2000/svg">
<g clip-path="url(#clip0_270_60848)">
<rect width="20" height="15" fill="white"/>
<path fill-rule="evenodd" clip-rule="evenodd" d="M13 0H20V15H13V0Z" fill="#D9071E"/>
<path fill-rule="evenodd" clip-rule="evenodd" d="M0 0H7V15H0V0Z" fill="#3D58DB"/>
<path fill-rule="evenodd" clip-rule="evenodd" d="M6 0H14V15H6V0Z" fill="#FBCD17"/>
<path fill-rule="evenodd" clip-rule="evenodd" d="M13.574 12.2588L12.9158 12.6184L10.7342 8.62545L11.3924 8.26585L13.574 12.2588ZM6.57091 12.3549L7.22908 12.7145L9.41068 8.72146L8.75251 8.36187L6.57091 12.3549Z" fill="#FD1900"/>
<path fill-rule="evenodd" clip-rule="evenodd" d="M7.11129 5.86814V9.33771C7.11129 10.1085 6.44763 11.1129 6.11292 11.4866C5.77821 11.8603 5.11345 12.7164 5.11345 12.7164V3.3802C5.11345 2.33297 6.11292 1.97323 6.11292 1.97323C6.11292 1.97323 6.94281 2.13741 7.11129 3.3802V4.59143C7.36815 4.79371 8.22587 5.41407 8.77996 5.15219C9.43785 4.84125 9.66509 3.9494 9.66509 3.9494C9.66509 3.9494 9.60357 3.04947 9.33354 3.04947C9.06351 3.04947 9.04193 1.7818 10.0761 1.7818C11.1102 1.7818 11.2308 2.27044 11.2308 2.65995C11.2308 2.86413 11.0671 3.19182 10.9113 3.50365C10.7699 3.78669 10.6351 4.05668 10.6351 4.20938C10.6351 4.53031 10.8769 5.15219 11.2308 5.15219C11.4789 5.15219 12.6726 4.68844 13.3634 4.41143V3.3802C13.5319 2.13741 14.3618 1.97323 14.3618 1.97323C14.3618 1.97323 15.3613 2.33297 15.3613 3.3802V12.7164C15.3613 12.7164 14.6965 11.8603 14.3618 11.4866C14.0271 11.1129 13.3634 10.1085 13.3634 9.33771V5.86814H7.11129ZM8.21887 12.3951C8.89486 11.955 9.8837 9.98134 9.8837 9.98134L10.212 10.0576C10.212 10.0576 10.7133 11.3649 12.1873 12.3951C10.6161 12.8144 10.212 13.6563 10.212 13.6563C10.212 12.9828 8.21887 12.3951 8.21887 12.3951ZM8.11 11.1458C8.56564 11.1458 8.935 10.7961 8.935 10.3646C8.935 9.93311 8.56564 9.58333 8.11 9.58333C7.65437 9.58333 7.285 9.93311 7.285 10.3646C7.285 10.7961 7.65437 11.1458 8.11 11.1458ZM12.95 10.3646C12.95 10.7961 12.5806 11.1458 12.125 11.1458C11.6694 11.1458 11.3 10.7961 11.3 10.3646C11.3 9.93311 11.6694 9.58333 12.125 9.58333C12.5806 9.58333 12.95 9.93311 12.95 10.3646Z" fill="#A77B3B"/>
<path d="M15.7125 6.50478L16.2862 6.75275L13.949 12.1602L13.3753 11.9122L15.7125 6.50478Z" fill="#FDFF00"/>
<path opacity="0.3" fill-rule="evenodd" clip-rule="evenodd" d="M6.89999 4.89584H13.5V9.67014C13.5 9.67014 11.8206 10.176 10.2 11.0061C9.00372 10.1186 6.89999 9.67014 6.89999 9.67014V4.89584Z" fill="#E1E5E8"/>
<mask id="mask0_270_60848" style="mask-type:luminance" maskUnits="userSpaceOnUse" x="6" y="4" width="8" height="8">
<path fill-rule="evenodd" clip-rule="evenodd" d="M6.89999 4.89584H13.5V9.67014C13.5 9.67014 11.8206 10.176 10.2 11.0061C9.00372 10.1186 6.89999 9.67014 6.89999 9.67014V4.89584Z" fill="white"/>
</mask>
<g mask="url(#mask0_270_60848)">
<rect x="6.89999" y="8.02084" width="6.6" height="3.125" fill="#3D58DB"/>
<rect x="6.89999" y="4.89584" width="6.6" height="3.125" fill="#FD1900"/>
<path fill-rule="evenodd" clip-rule="evenodd" d="M9.86666 6.30134L9.36644 6.34273L9.65494 5.95357L9.3475 5.55054L9.85025 5.61528L10.043 5.17086L10.2573 5.62475L10.7575 5.58336L10.469 5.97252L10.7764 6.37554L10.2737 6.31081L10.0809 6.75523L9.86666 6.30134Z" fill="#FDFF00"/>
<path fill-rule="evenodd" clip-rule="evenodd" d="M8.96876 5.41981C8.96876 5.41981 7.62506 6.23731 8.07296 6.82414C8.52086 7.41097 9.08466 7.48609 9.08466 7.48609C9.08466 7.48609 7.71016 9.54816 10.1293 10.7262C12.7193 9.58897 11.3572 7.48609 11.3572 7.48609C11.3572 7.48609 12.1545 7.30971 12.3141 6.6752C12.4738 6.04068 11.272 5.31292 11.272 5.31292C11.272 5.31292 12.0218 6.39967 11.8506 6.6752C11.6795 6.95073 10.7625 7.23124 10.1293 7.23124C9.49615 7.23124 8.5184 7.05345 8.3606 6.57199C8.20281 6.09053 8.96876 5.41981 8.96876 5.41981Z" fill="#FDFF00"/>
<path fill-rule="evenodd" clip-rule="evenodd" d="M7.72499 7.5L8.54999 8.02083L7.72499 8.54167L6.89999 8.02083L7.72499 7.5Z" fill="#FDFF00"/>
<path fill-rule="evenodd" clip-rule="evenodd" d="M12.675 7.5L13.5 8.02083L12.675 8.54167L11.85 8.02083L12.675 7.5Z" fill="#FDFF00"/>
<path fill-rule="evenodd" clip-rule="evenodd" d="M7.7 9.5625C7.83807 9.5625 7.95 9.45057 7.95 9.3125C7.95 9.17443 7.83807 9.0625 7.7 9.0625C7.56193 9.0625 7.45 9.17443 7.45 9.3125C7.45 9.45057 7.56193 9.5625 7.7 9.5625Z" fill="#FDFF00"/>
<path fill-rule="evenodd" clip-rule="evenodd" d="M13.0188 9.08924C12.8041 8.91546 12.4752 8.96595 12.2841 9.20201C12.0929 9.43807 12.1119 9.77032 12.3265 9.9441C12.4431 10.0386 12.3823 9.66328 12.5588 9.42451C12.7071 9.22396 13.1167 9.16857 13.0188 9.08924Z" fill="#FDFF00"/>
</g>
<path fill-rule="evenodd" clip-rule="evenodd" d="M2.9604 7.20561C2.9604 7.20561 3.61923 7.9845 4.23958 7.72983C4.85994 7.47517 4.70953 6.56216 4.70953 6.56216L4.23958 6.98849H3.83955V7.20561L3.52711 6.98849V7.20561H2.9604ZM3.40598 8.40253C3.40598 8.40253 4.20897 9.10286 4.74997 8.90495C5.29096 8.70705 5.15511 7.75908 5.15511 7.75908L4.68516 8.18541H4.28512V8.40253L3.97269 8.18541V8.40253H3.40598ZM5.56836 9.99183C5.02737 10.1897 4.22438 9.4894 4.22438 9.4894H4.79108V9.27228L5.10352 9.4894V9.27228H5.50356L5.97351 8.84595C5.97351 8.84595 6.10936 9.79392 5.56836 9.99183Z" fill="#048F02"/>
<path fill-rule="evenodd" clip-rule="evenodd" d="M8.73709 1.4053H8.11209V1.77755H7.81792V2.40255H8.11209V3.49294H8.73709V2.40255H9.09469V1.77755H8.73709V1.4053Z" fill="#FDFF00"/>
<path fill-rule="evenodd" clip-rule="evenodd" d="M9.47382 2.11534L8.02623 2.48825L9.47382 2.94567V2.11534Z" fill="#DB4400"/>
</g>
<defs>
<clipPath id="clip0_270_60848">
<rect width="20" height="15" fill="white"/>
</clipPath>
</defs>
</svg>

<svg width="20" height="15" fill="none" xmlns="http://www.w3.org/2000/svg">
  <mask id="a" maskUnits="userSpaceOnUse" x="0" y="0" width="20" height="15">
    <path fill="#fff" d="M0 0h20v15H0z"/>
  </mask>
  <g mask="url(#a)">
    <path fill-rule="evenodd" clip-rule="evenodd" d="M13 0h7v15h-7V0z" fill="#D9071E"/>
    <path fill-rule="evenodd" clip-rule="evenodd" d="M0 0h7v15H0V0z" fill="#3D58DB"/>
    <path fill-rule="evenodd" clip-rule="evenodd" d="M6 0h8v15H6V0z" fill="#FBCD17"/>
    <path fill-rule="evenodd" clip-rule="evenodd" d="M13.574 12.259l-.658.36-2.182-3.994.658-.36 2.182 3.994zm-7.003.096l.658.36L9.411 8.72l-.658-.36-2.182 3.994z" fill="#FD1900"/>
    <path fill-rule="evenodd" clip-rule="evenodd" d="M7.111 5.868v3.47c0 .77-.663 1.775-.998 2.149-.335.373-1 1.23-1 1.23V3.38c0-1.047 1-1.407 1-1.407s.83.164.998 1.407v1.211c.257.203 1.115.823 1.669.561.658-.31.885-1.203.885-1.203s-.061-.9-.331-.9-.292-1.267.742-1.267 1.155.488 1.155.878c0 .204-.164.532-.32.844-.141.283-.276.553-.276.705 0 .321.242.943.596.943.248 0 1.442-.464 2.132-.74V3.38c.169-1.243.999-1.407.999-1.407s1 .36 1 1.407v9.336s-.665-.856-1-1.23c-.335-.373-.999-1.378-.999-2.148v-3.47H7.111zm1.108 6.527c.676-.44 1.665-2.414 1.665-2.414l.328.077s.501 1.307 1.975 2.337c-1.57.42-1.975 1.261-1.975 1.261 0-.673-1.993-1.26-1.993-1.26zm-.109-1.25c.456 0 .825-.349.825-.78 0-.432-.37-.782-.825-.782-.456 0-.825.35-.825.782 0 .431.37.78.825.78zm4.84-.78c0 .431-.37.78-.825.78-.456 0-.825-.349-.825-.78 0-.432.37-.782.825-.782.456 0 .825.35.825.782z" fill="#A77B3B"/>
    <path d="M15.713 6.505l.573.248-2.337 5.407-.574-.248 2.338-5.407z" fill="#FDFF00"/>
    <path opacity=".3" fill-rule="evenodd" clip-rule="evenodd" d="M6.9 4.896h6.6V9.67s-1.68.506-3.3 1.336C9.004 10.12 6.9 9.67 6.9 9.67V4.896z" fill="#E1E5E8"/>
    <mask id="b" maskUnits="userSpaceOnUse" x="6" y="4" width="8" height="8">
      <path fill-rule="evenodd" clip-rule="evenodd" d="M6.9 4.896h6.6V9.67s-1.68.506-3.3 1.336C9.004 10.12 6.9 9.67 6.9 9.67V4.896z" fill="#fff"/>
    </mask>
    <g mask="url(#b)">
      <path fill="#3D58DB" d="M6.9 8.021h6.6v3.125H6.9z"/>
      <path fill="#FD1900" d="M6.9 4.896h6.6v3.125H6.9z"/>
      <path fill-rule="evenodd" clip-rule="evenodd" d="M9.867 6.301l-.5.042.288-.39-.307-.402.502.064.193-.444.214.454.5-.042-.288.39.307.403-.502-.065-.193.444-.214-.454z" fill="#FDFF00"/>
      <path fill-rule="evenodd" clip-rule="evenodd" d="M8.969 5.42s-1.344.817-.896 1.404c.448.587 1.012.662 1.012.662s-1.375 2.062 1.044 3.24c2.59-1.137 1.228-3.24 1.228-3.24s.798-.176.957-.81c.16-.635-1.042-1.363-1.042-1.363s.75 1.087.579 1.362c-.171.276-1.089.556-1.722.556s-1.61-.178-1.768-.659c-.158-.481.608-1.152.608-1.152z" fill="#FDFF00"/>
      <path fill-rule="evenodd" clip-rule="evenodd" d="M7.725 7.5l.825.52-.825.522L6.9 8.02l.825-.521zm4.95 0l.825.52-.825.522-.825-.521.825-.521zM7.7 9.563a.25.25 0 100-.5.25.25 0 000 .5zm5.319-.473c-.215-.175-.544-.124-.735.112-.191.236-.172.568.042.742.117.095.056-.28.233-.52.148-.2.558-.255.46-.335z" fill="#FDFF00"/>
    </g>
    <path fill-rule="evenodd" clip-rule="evenodd" d="M2.96 7.206s.66.778 1.28.524c.62-.255.47-1.168.47-1.168l-.47.426h-.4v.218l-.313-.218v.218H2.96zm.446 1.197s.803.7 1.344.502c.541-.198.405-1.146.405-1.146l-.47.426h-.4v.218l-.312-.218v.218h-.567zm2.162 1.589c-.54.198-1.344-.503-1.344-.503h.567v-.217l.313.217v-.217h.4l.47-.426s.135.948-.406 1.146z" fill="#048F02"/>
    <path fill-rule="evenodd" clip-rule="evenodd" d="M8.737 1.405h-.625v.373h-.294v.625h.294v1.09h.625v-1.09h.358v-.625h-.358v-.373z" fill="#FDFF00"/>
    <path fill-rule="evenodd" clip-rule="evenodd" d="M9.474 2.115l-1.448.373 1.448.458v-.83z" fill="#DB4400"/>
  </g>
</svg>
